X: 26
T:Jackie Coleman's
M:C|
L:1/8
Q:200
S:THSP
R:reel
D:
Z:
K:D
"D"AF~F2 EFDE|~F2AF BFAF|"Em"~E2BE dEBE|"G"ABde "A"fedB|
"D"AF~F2 EFDE|~F2AF BFAF|"Em"~E2BE dEBE
|1 "A"ABde "D"fddB:|2 "A"ABde "D"fdde|:
"D"fddc d3e|fddc dfaf|"A"eA~A2 gAfA|eA~A2 cdeg|
"D"fddc d3e|fddc dfaf|"G"g2gf gbag
|1 "A"faeg "D"fdd2:|2 "A"faeg "D"fddB|]
